!!!COM: Henri Reber
!!!CNT: Francais
!!!TXO: Francais
!!!OTL: Rose
!!!LYR: Victor Hugo
!!!ODT: 1858/
!!!ENC: Jacob Pegg
!!!YOR: Romantic French Song 1830-1870, David Tunley, ed., New York: Garland Publishing, Inc., 1995, vol. 3
!!NB: Vocal melody and text only encoded.
!!NB: First instance of melodic material only encoded.
!!NB: In this case, slightly modified strophes encoded.
**kern	**silbe
*clef G2	*
*k[f#]	*
*M4/4	*
=4	=4
2r	.
{4g	{Je
4a	ne
=5	=5
4b	songe-
4b	-ais
4dd	pas
4ee	a\
=6	=6
4dd	Ro-
8b}	-se;}
8r	.
{4a	{Rose
4b	au
=7	=7
4g	bois
4cc	vint
4b	a-
4a	-vec
=8	=8
4.g}	moi;}
8r	.
{4g	{Nous
4a	par-
=9	=9
4b	-lions
4b	de
4dd	quel-
4ee	-que
=10	=10
4dd	cho-
8b}	-se,}
8r	.
{4a#	{Mais
4cc#	je
=11	=11
4b	ne
4dd	sais
4.cc#	plus
8dd	de
=12	=12
4.b}	quoi.}
8r	.
{4b	{J'e\-
4b	-tais
=13	=13
4ccn	froid
4ccn	com-
4b	-me
4ee	les
=14	=14
4ee	mar-
8a}	-bres;}
8r	.
{4a	{Je
4b	mar-
=15	=15
4g	-chais
4a	a\
4b	pas
(ddq	|
4cc)	dis-
=16	=16
4.a}	-traits;}
8r	.
{4b	{Je
4b	par-
=17	=17
4.cc	-lais
8b	des
4.a#	fleurs,
8a#	des
=18	=18
(8.b;	ar-
16f#)	|
8f#}	-bres;}
8r;	.
{4b	{Son
4a	oeil
=19	=19
4a	sem-
4g	-blait
(8g	dire
4f#)	|
16r	.
16dd	A-
=20	=20
4g}	-pre\s?}
4r	.
2r	.
=21	=21
4r	.
4r;	.
{4g	{La
4a	ro-
=22	=22
4b	-se/e
4b	of-
4dd	-frait
4ee	ses
=23	=23
4dd	per-
8b}	-les,}
8r	.
{4a	{Le
4b	tail-
=24	=24
4g	-lis
4cc	ses
4b	pa-
4a	-ra-
=25	=25
4.g	-sols;
16r	.
16d	J'al-
(4g	-lais;
8a)	|
8r	.
=26	=26
4b	J'e/-
4b	-cou-
4dd	-tais
4ee	les
=27	=27
4dd	mer-
8b}	-les,}
8r	.
{(4a#	{Et
4c#)	|
=28	=28
(8b	Ro-
4ff#)	|
8dd	-se
4cc#T	les
(12ee	ros-
12dd	|
12cc#)	-si-
=29	=29
4.b}	-gnols.}
8r	.
{4b	{Moi,
4ccn	seize
=30	=30
4a	ans,
8r	.
8a	et
4b	l'air
4dd	mo-
=31	=31
(8.cc	-ro-
16b)	|
8a}	-se,}
8r	.
{4a	{El-
8d	-le,
8r	.
=32	=32
4dd	vingt;
8r	.
8a	ses
4b	yeux
(ddq	|
4cc)	bril-
=33	=33
4.a}	-laient;}
8r	.
{4b	{Les
8b	ros-
8b	-si-
=34	=34
4.cc	-gnols
8b	chan-
(4a#	-taient
4ff#)	|
=35	=35
4ff#;	Ro-
(16ee#q	|
16ff#q	|
16ggq	|
16ff#q	|
16dd#q)	|
8b;}	-se}
8r	.
{4b	{Et
4a	les
=36	=36
4a	mer-
4g	-les
(8g	me
4f)	|
8dd	sif-
=37	=37
4g}	-flaient,}
4r	.
2r	.
=38	=38
4r	.
4r;	.
{4g	{Je
4a	ne
=39	=39
4b	sa-
4b	-vais
4dd	que
4ee	lui
=40	=40
4dd	di-
8b}	-re;}
8r	.
{4a	{Je
4b	la
=41	=41
4g	sui-
4cc	-vais
4b	dans
4a	les
=42	=42
4.g}	bois,}
8r	.
{4g	{La
4a	voy-
=43	=43
4b	-ant
4b	par-
4dd	-fois
(ff#q	sou-
4ee)	|
=44	=44
4dd	-ri-
8b}	-re}
8r	.
{4a#	{Et
8.cc#	sou-
16cc#	-pi-
=45	=45
(4b	-rer
4dd)	|
(4cc#	quel-
16ddq	|
16cc#q	|
16b#q	|
16cc#q	|
12ee	|
12dd)	|
12cc#	-que-
=46	=46
4.b}	-fois.}
8r	.
{4b	{Je
4b	ne
=47	=47
4ccn	vis
4ccn	qu'el-
4b	-le e/-
4ee	-tait
=48	=48
(8.ee	bel-
16cc)	|
8a}	-le}
8r	.
{4a	{Qu'en
4b	sor-
=49	=49
4g	-tant
4a	des
4b	grands
(ddq	bois
4cc)	|
=50	=50
4.a}	sourds.}
8r	.
{4b	{"Soit,
4r	.
=51	=51
4cc	n'y
8cc	pen-
8b	-sons
4a#	plus!"
8r	.
8a#	..dit~
=52	=52
(8.b;	~el-
16f#)	|
16f#;}	-le.}
16r;	.
{8b	{De-
(4b	-puis
8a)	|
8b	j'y
=53	=53
4a	pen-
8g	-se
8a	tou-
(8g	-jours,
8f#)}	|}
8r	.
{8dd	{tou-
=54	=54
2g}	-jours.}
2r	.
*-	*-
